 [VECTRIC CNC OUTPUT FOR CAMASTER TOOLCHANGE ]
 [MACHINES WITH WINCNC CONTROL ONLY]
 
 [FILENAME: Drill 1]
 [06:52 PM, Saturday December 19 2015]
 
 [MATERIAL size: 12.104" x 12.588" x 0.170"]
 [Z Zero Position: Table Surface]
 
 [TOOL LIST]
 [2 = downcut router .125 leather]
  
 G90 [ABSOLUTE MODE]
  
 M5 [SPINDLE OFF]
 G53 Z0 [LIFT Z TO TOP]
  
 T2 [ GET TOOL NUMBER 2 ]
 [downcut router .125 leather]
 
 S12000 [ SET SPINDLE SPEED RPM ]
 M3 [SPINDLE ON]
  
 G53 Z0 [LIFT Z TO TOP]
 
 [TOOLPATH NAME: Drill 1]
 F10 XY [SET FEEDRATE FOR X AND Y]
 F15 Z [SET FEEDRATE FOR Z]
  
 G0 X3.673147 Y2.955140
 G0 Z0.800
 G1 X3.673147 Y2.955140 Z0.002000
 G0 X3.673147 Y2.955140 Z0.370000
 G0 X6.556849 Y2.387283 Z0.370000
 G1 X6.556849 Y2.387283 Z0.002000
 G0 X6.556849 Y2.387283 Z0.370000
 G0 X9.111558 Y3.833709 Z0.370000
 G1 X9.111558 Y3.833709 Z0.002000
 G0 X9.111558 Y3.833709 Z0.370000
 G0 X10.051290 Y6.611099 Z0.370000
 G1 X10.051290 Y6.611099 Z0.002000
 G0 X10.051290 Y6.611099 Z0.370000
 G0 X10.837750 Y7.883955 Z0.370000
 G1 X10.837750 Y7.883955 Z0.002000
 G0 X10.837750 Y7.883955 Z0.370000
 G0 X9.167354 Y10.319713 Z0.370000
 G1 X9.167354 Y10.319713 Z0.002000
 G0 X9.167354 Y10.319713 Z0.370000
 G0 X6.396878 Y11.337712 Z0.370000
 G1 X6.396878 Y11.337712 Z0.002000
 G0 X6.396878 Y11.337712 Z0.370000
 G0 X3.560844 Y10.527434 Z0.370000
 G1 X3.560844 Y10.527434 Z0.002000
 G0 X3.560844 Y10.527434 Z0.370000
 G0 X1.781072 Y8.178233 Z0.370000
 G1 X1.781072 Y8.178233 Z0.002000
 G0 X1.781072 Y8.178233 Z0.370000
 G0 X1.811862 Y5.233608 Z0.370000
 G1 X1.811862 Y5.233608 Z0.002000
 G0 X1.811862 Y5.233608 Z0.370000
 G53 Z0
 M5
