 [VECTRIC CNC OUTPUT FOR CAMASTER TOOLCHANGE ]
 [MACHINES WITH WINCNC CONTROL ONLY]
 
 [FILENAME: strip=3,holes=.5,h=.2,len=60,drill]
 [02:16 AM, Wednesday January 20 2016]
 
 [MATERIAL size: 14.400" x 65.087" x 0.110"]
 [Z Zero Position: Table Surface]
 
 [TOOL LIST]
 [2 = downcut router .125 leather]
  
 G90 [ABSOLUTE MODE]
  
 M5 [SPINDLE OFF]
 G53 Z0 [LIFT Z TO TOP]
  
 T2 [ GET TOOL NUMBER 2 ]
 [downcut router .125 leather]
 
 S12000 [ SET SPINDLE SPEED RPM ]
 M3 [SPINDLE ON]
  
 G53 Z0 [LIFT Z TO TOP]
 
 [TOOLPATH NAME: Drill 1]
 F10 XY [SET FEEDRATE FOR X AND Y]
 F30 Z [SET FEEDRATE FOR Z]
  
 G0 X-12.900000 Y0.000000
 G0 Z0.800
 G1 X-12.900000 Y0.000000 Z0.000000
 G0 X-12.900000 Y0.000000 Z0.310000
 G0 X-12.896097 Y-0.483898 Z0.310000
 G1 X-12.896097 Y-0.483898 Z0.000000
 G0 X-12.896097 Y-0.483898 Z0.310000
 G0 X-12.884480 Y-0.967979 Z0.310000
 G1 X-12.884480 Y-0.967979 Z0.000000
 G0 X-12.884480 Y-0.967979 Z0.310000
 G0 X-12.865290 Y-1.452126 Z0.310000
 G1 X-12.865290 Y-1.452126 Z0.000000
 G0 X-12.865290 Y-1.452126 Z0.310000
 G0 X-12.838672 Y-1.936232 Z0.310000
 G1 X-12.838672 Y-1.936232 Z0.000000
 G0 X-12.838672 Y-1.936232 Z0.310000
 G0 X-12.804771 Y-2.420190 Z0.310000
 G1 X-12.804771 Y-2.420190 Z0.000000
 G0 X-12.804771 Y-2.420190 Z0.310000
 G0 X-12.763737 Y-2.903905 Z0.310000
 G1 X-12.763737 Y-2.903905 Z0.000000
 G0 X-12.763737 Y-2.903905 Z0.310000
 G0 X-12.715714 Y-3.387280 Z0.310000
 G1 X-12.715714 Y-3.387280 Z0.000000
 G0 X-12.715714 Y-3.387280 Z0.310000
 G0 X-12.660851 Y-3.870220 Z0.310000
 G1 X-12.660851 Y-3.870220 Z0.000000
 G0 X-12.660851 Y-3.870220 Z0.310000
 G0 X-12.599291 Y-4.352643 Z0.310000
 G1 X-12.599291 Y-4.352643 Z0.000000
 G0 X-12.599291 Y-4.352643 Z0.310000
 G0 X-12.531174 Y-4.834471 Z0.310000
 G1 X-12.531174 Y-4.834471 Z0.000000
 G0 X-12.531174 Y-4.834471 Z0.310000
 G0 X-13.025773 Y-4.907759 Z0.310000
 G1 X-13.025773 Y-4.907759 Z0.000000
 G0 X-13.025773 Y-4.907759 Z0.310000
 G0 X-13.094827 Y-4.419308 Z0.310000
 G1 X-13.094827 Y-4.419308 Z0.000000
 G0 X-13.094827 Y-4.419308 Z0.310000
 G0 X-13.157252 Y-3.930110 Z0.310000
 G1 X-13.157252 Y-3.930110 Z0.000000
 G0 X-13.157252 Y-3.930110 Z0.310000
 G0 X-13.212902 Y-3.440240 Z0.310000
 G1 X-13.212902 Y-3.440240 Z0.000000
 G0 X-13.212902 Y-3.440240 Z0.310000
 G0 X-12.950240 Y-5.395394 Z0.310000
 G1 X-12.950240 Y-5.395394 Z0.000000
 G0 X-12.950240 Y-5.395394 Z0.310000
 G0 X-12.868373 Y-5.882147 Z0.310000
 G1 X-12.868373 Y-5.882147 Z0.000000
 G0 X-12.868373 Y-5.882147 Z0.310000
 G0 X-12.780319 Y-6.367960 Z0.310000
 G1 X-12.780319 Y-6.367960 Z0.000000
 G0 X-12.780319 Y-6.367960 Z0.310000
 G0 X-12.686221 Y-6.852775 Z0.310000
 G1 X-12.686221 Y-6.852775 Z0.000000
 G0 X-12.686221 Y-6.852775 Z0.310000
 G0 X-12.586218 Y-7.336534 Z0.310000
 G1 X-12.586218 Y-7.336534 Z0.000000
 G0 X-12.586218 Y-7.336534 Z0.310000
 G0 X-13.075251 Y-7.440685 Z0.310000
 G1 X-13.075251 Y-7.440685 Z0.000000
 G0 X-13.075251 Y-7.440685 Z0.310000
 G0 X-12.968213 Y-7.929090 Z0.310000
 G1 X-12.968213 Y-7.929090 Z0.000000
 G0 X-12.968213 Y-7.929090 Z0.310000
 G0 X-12.855492 Y-8.416216 Z0.310000
 G1 X-12.855492 Y-8.416216 Z0.000000
 G0 X-12.855492 Y-8.416216 Z0.310000
 G0 X-12.737219 Y-8.902023 Z0.310000
 G1 X-12.737219 Y-8.902023 Z0.000000
 G0 X-12.737219 Y-8.902023 Z0.310000
 G0 X-12.613526 Y-9.386479 Z0.310000
 G1 X-12.613526 Y-9.386479 Z0.000000
 G0 X-12.613526 Y-9.386479 Z0.310000
 G0 X-13.176470 Y-6.951041 Z0.310000
 G1 X-13.176470 Y-6.951041 Z0.000000
 G0 X-13.176470 Y-6.951041 Z0.310000
 G0 X-13.271736 Y-6.460204 Z0.310000
 G1 X-13.271736 Y-6.460204 Z0.000000
 G0 X-13.271736 Y-6.460204 Z0.310000
 G0 X-13.360909 Y-5.968223 Z0.310000
 G1 X-13.360909 Y-5.968223 Z0.000000
 G0 X-13.360909 Y-5.968223 Z0.310000
 G0 X-13.443837 Y-5.475152 Z0.310000
 G1 X-13.443837 Y-5.475152 Z0.000000
 G0 X-13.443837 Y-5.475152 Z0.310000
 G0 X-13.520372 Y-4.981047 Z0.310000
 G1 X-13.520372 Y-4.981047 Z0.000000
 G0 X-13.520372 Y-4.981047 Z0.310000
 G0 X-13.590362 Y-4.485974 Z0.310000
 G1 X-13.590362 Y-4.485974 Z0.000000
 G0 X-13.590362 Y-4.485974 Z0.310000
 G0 X-13.653652 Y-3.990000 Z0.310000
 G1 X-13.653652 Y-3.990000 Z0.000000
 G0 X-13.653652 Y-3.990000 Z0.310000
 G0 X-13.710090 Y-3.493199 Z0.310000
 G1 X-13.710090 Y-3.493199 Z0.000000
 G0 X-13.710090 Y-3.493199 Z0.310000
 G0 X-13.759519 Y-2.995652 Z0.310000
 G1 X-13.759519 Y-2.995652 Z0.000000
 G0 X-13.759519 Y-2.995652 Z0.310000
 G0 X-13.801783 Y-2.497446 Z0.310000
 G1 X-13.801783 Y-2.497446 Z0.000000
 G0 X-13.801783 Y-2.497446 Z0.310000
 G0 X-13.836720 Y-1.998673 Z0.310000
 G1 X-13.836720 Y-1.998673 Z0.000000
 G0 X-13.836720 Y-1.998673 Z0.310000
 G0 X-13.864170 Y-1.499432 Z0.310000
 G1 X-13.864170 Y-1.499432 Z0.000000
 G0 X-13.864170 Y-1.499432 Z0.310000
 G0 X-13.883972 Y-0.999829 Z0.310000
 G1 X-13.883972 Y-0.999829 Z0.000000
 G0 X-13.883972 Y-0.999829 Z0.310000
 G0 X-13.895967 Y-0.499978 Z0.310000
 G1 X-13.895967 Y-0.499978 Z0.000000
 G0 X-13.895967 Y-0.499978 Z0.310000
 G0 X-13.900000 Y0.000000 Z0.310000
 G1 X-13.900000 Y0.000000 Z0.000000
 G0 X-13.900000 Y0.000000 Z0.310000
 G0 X-13.400000 Y0.000000 Z0.310000
 G1 X-13.400000 Y0.000000 Z0.000000
 G0 X-13.400000 Y0.000000 Z0.310000
 G0 X-13.396032 Y-0.491938 Z0.310000
 G1 X-13.396032 Y-0.491938 Z0.000000
 G0 X-13.396032 Y-0.491938 Z0.310000
 G0 X-13.384226 Y-0.983904 Z0.310000
 G1 X-13.384226 Y-0.983904 Z0.000000
 G0 X-13.384226 Y-0.983904 Z0.310000
 G0 X-13.364730 Y-1.475779 Z0.310000
 G1 X-13.364730 Y-1.475779 Z0.000000
 G0 X-13.364730 Y-1.475779 Z0.310000
 G0 X-13.337696 Y-1.967452 Z0.310000
 G1 X-13.337696 Y-1.967452 Z0.000000
 G0 X-13.337696 Y-1.967452 Z0.310000
 G0 X-13.303277 Y-2.458818 Z0.310000
 G1 X-13.303277 Y-2.458818 Z0.000000
 G0 X-13.303277 Y-2.458818 Z0.310000
 G0 X-13.261627 Y-2.949779 Z0.310000
 G1 X-13.261627 Y-2.949779 Z0.000000
 G0 X-13.261627 Y-2.949779 Z0.310000
 G0 X-12.456642 Y-5.315636 Z0.310000
 G1 X-12.456642 Y-5.315636 Z0.000000
 G0 X-12.456642 Y-5.315636 Z0.310000
 G0 X-12.375838 Y-5.796071 Z0.310000
 G1 X-12.375838 Y-5.796071 Z0.000000
 G0 X-12.375838 Y-5.796071 Z0.310000
 G0 X-12.288901 Y-6.275716 Z0.310000
 G1 X-12.288901 Y-6.275716 Z0.000000
 G0 X-12.288901 Y-6.275716 Z0.310000
 G0 X-12.195972 Y-6.754508 Z0.310000
 G1 X-12.195972 Y-6.754508 Z0.000000
 G0 X-12.195972 Y-6.754508 Z0.310000
 G0 X-12.097186 Y-7.232382 Z0.310000
 G1 X-12.097186 Y-7.232382 Z0.000000
 G0 X-12.097186 Y-7.232382 Z0.310000
 G0 X-11.992669 Y-7.709287 Z0.310000
 G1 X-11.992669 Y-7.709287 Z0.000000
 G0 X-11.992669 Y-7.709287 Z0.310000
 G0 X-11.882546 Y-8.185178 Z0.310000
 G1 X-11.882546 Y-8.185178 Z0.000000
 G0 X-11.882546 Y-8.185178 Z0.310000
 G0 X-12.369020 Y-8.300697 Z0.310000
 G1 X-12.369020 Y-8.300697 Z0.000000
 G0 X-12.369020 Y-8.300697 Z0.310000
 G0 X-12.480441 Y-7.819189 Z0.310000
 G1 X-12.480441 Y-7.819189 Z0.000000
 G0 X-12.480441 Y-7.819189 Z0.310000
 G0 X-12.252082 Y-8.781019 Z0.310000
 G1 X-12.252082 Y-8.781019 Z0.000000
 G0 X-12.252082 Y-8.781019 Z0.310000
 G0 X-12.129757 Y-9.260118 Z0.310000
 G1 X-12.129757 Y-9.260118 Z0.000000
 G0 X-12.129757 Y-9.260118 Z0.310000
 G0 X-12.002167 Y-9.737963 Z0.310000
 G1 X-12.002167 Y-9.737963 Z0.000000
 G0 X-12.002167 Y-9.737963 Z0.310000
 G0 X-11.869436 Y-10.214522 Z0.310000
 G1 X-11.869436 Y-10.214522 Z0.000000
 G0 X-11.869436 Y-10.214522 Z0.310000
 G0 X-12.350388 Y-10.351217 Z0.310000
 G1 X-12.350388 Y-10.351217 Z0.000000
 G0 X-12.350388 Y-10.351217 Z0.310000
 G0 X-12.484540 Y-9.869554 Z0.310000
 G1 X-12.484540 Y-9.869554 Z0.000000
 G0 X-12.484540 Y-9.869554 Z0.310000
 G0 X-12.211191 Y-10.831450 Z0.310000
 G1 X-12.211191 Y-10.831450 Z0.000000
 G0 X-12.211191 Y-10.831450 Z0.310000
 G0 X-12.067072 Y-11.310226 Z0.310000
 G1 X-12.067072 Y-11.310226 Z0.000000
 G0 X-12.067072 Y-11.310226 Z0.310000
 G0 X-11.918140 Y-11.787528 Z0.310000
 G1 X-11.918140 Y-11.787528 Z0.000000
 G0 X-11.918140 Y-11.787528 Z0.310000
 G0 X-11.764503 Y-12.263336 Z0.310000
 G1 X-11.764503 Y-12.263336 Z0.000000
 G0 X-11.764503 Y-12.263336 Z0.310000
 G0 X-11.289448 Y-12.107380 Z0.310000
 G1 X-11.289448 Y-12.107380 Z0.000000
 G0 X-11.289448 Y-12.107380 Z0.310000
 G0 X-11.441583 Y-11.636226 Z0.310000
 G1 X-11.441583 Y-11.636226 Z0.000000
 G0 X-11.441583 Y-11.636226 Z0.310000
 G0 X-11.589029 Y-11.163683 Z0.310000
 G1 X-11.589029 Y-11.163683 Z0.000000
 G0 X-11.589029 Y-11.163683 Z0.310000
 G0 X-11.731684 Y-10.689771 Z0.310000
 G1 X-11.731684 Y-10.689771 Z0.000000
 G0 X-11.731684 Y-10.689771 Z0.310000
 G0 X-11.252176 Y-10.548093 Z0.310000
 G1 X-11.252176 Y-10.548093 Z0.000000
 G0 X-11.252176 Y-10.548093 Z0.310000
 G0 X-11.388485 Y-10.077827 Z0.310000
 G1 X-11.388485 Y-10.077827 Z0.000000
 G0 X-11.388485 Y-10.077827 Z0.310000
 G0 X-11.519794 Y-9.606373 Z0.310000
 G1 X-11.519794 Y-9.606373 Z0.000000
 G0 X-11.519794 Y-9.606373 Z0.310000
 G0 X-11.132726 Y-12.577125 Z0.310000
 G1 X-11.132726 Y-12.577125 Z0.000000
 G0 X-11.132726 Y-12.577125 Z0.310000
 G0 X-10.971515 Y-13.045444 Z0.310000
 G1 X-10.971515 Y-13.045444 Z0.000000
 G0 X-10.971515 Y-13.045444 Z0.310000
 G0 X-10.805914 Y-13.512325 Z0.310000
 G1 X-10.805914 Y-13.512325 Z0.000000
 G0 X-10.805914 Y-13.512325 Z0.310000
 G0 X-10.636018 Y-13.977753 Z0.310000
 G1 X-10.636018 Y-13.977753 Z0.000000
 G0 X-10.636018 Y-13.977753 Z0.310000
 G0 X-10.461922 Y-14.441718 Z0.310000
 G1 X-10.461922 Y-14.441718 Z0.000000
 G0 X-10.461922 Y-14.441718 Z0.310000
 G0 X-10.929267 Y-14.619450 Z0.310000
 G1 X-10.929267 Y-14.619450 Z0.000000
 G0 X-10.929267 Y-14.619450 Z0.310000
 G0 X-10.749494 Y-15.086011 Z0.310000
 G1 X-10.749494 Y-15.086011 Z0.000000
 G0 X-10.749494 Y-15.086011 Z0.310000
 G0 X-10.565698 Y-15.551003 Z0.310000
 G1 X-10.565698 Y-15.551003 Z0.000000
 G0 X-10.565698 Y-15.551003 Z0.310000
 G0 X-11.104925 Y-14.151322 Z0.310000
 G1 X-11.104925 Y-14.151322 Z0.000000
 G0 X-11.104925 Y-14.151322 Z0.310000
 G0 X-10.499511 Y-12.880484 Z0.310000
 G1 X-10.499511 Y-12.880484 Z0.000000
 G0 X-10.499511 Y-12.880484 Z0.310000
 G0 X-10.659189 Y-12.416615 Z0.310000
 G1 X-10.659189 Y-12.416615 Z0.000000
 G0 X-10.659189 Y-12.416615 Z0.310000
 G0 X-10.814393 Y-11.951423 Z0.310000
 G1 X-10.814393 Y-11.951423 Z0.000000
 G0 X-10.814393 Y-11.951423 Z0.310000
 G0 X-10.965025 Y-11.484923 Z0.310000
 G1 X-10.965025 Y-11.484923 Z0.000000
 G0 X-10.965025 Y-11.484923 Z0.310000
 G0 X-11.110986 Y-11.017139 Z0.310000
 G1 X-11.110986 Y-11.017139 Z0.000000
 G0 X-11.110986 Y-11.017139 Z0.310000
 G0 X-11.606262 Y-12.737634 Z0.310000
 G1 X-11.606262 Y-12.737634 Z0.000000
 G0 X-11.606262 Y-12.737634 Z0.310000
 G0 X-11.443519 Y-13.210405 Z0.310000
 G1 X-11.443519 Y-13.210405 Z0.000000
 G0 X-11.443519 Y-13.210405 Z0.310000
 G0 X-11.276374 Y-13.681639 Z0.310000
 G1 X-11.276374 Y-13.681639 Z0.000000
 G0 X-11.276374 Y-13.681639 Z0.310000
 G0 X-10.335453 Y-13.343012 Z0.310000
 G1 X-10.335453 Y-13.343012 Z0.000000
 G0 X-10.335453 Y-13.343012 Z0.310000
 G0 X-10.167111 Y-13.804183 Z0.310000
 G1 X-10.167111 Y-13.804183 Z0.000000
 G0 X-10.167111 Y-13.804183 Z0.310000
 G0 X-9.994576 Y-14.263987 Z0.310000
 G1 X-9.994576 Y-14.263987 Z0.000000
 G0 X-9.994576 Y-14.263987 Z0.310000
 G0 X-9.817939 Y-14.722411 Z0.310000
 G1 X-9.817939 Y-14.722411 Z0.000000
 G0 X-9.817939 Y-14.722411 Z0.310000
 G0 X-10.283716 Y-14.904211 Z0.310000
 G1 X-10.283716 Y-14.904211 Z0.000000
 G0 X-10.283716 Y-14.904211 Z0.310000
 G0 X-10.101493 Y-15.365224 Z0.310000
 G1 X-10.101493 Y-15.365224 Z0.000000
 G0 X-10.101493 Y-15.365224 Z0.310000
 G0 X-9.915338 Y-15.824738 Z0.310000
 G1 X-9.915338 Y-15.824738 Z0.000000
 G0 X-9.915338 Y-15.824738 Z0.310000
 G0 X-10.377961 Y-16.014418 Z0.310000
 G1 X-10.377961 Y-16.014418 Z0.000000
 G0 X-10.377961 Y-16.014418 Z0.310000
 G0 X-10.186361 Y-16.476250 Z0.310000
 G1 X-10.186361 Y-16.476250 Z0.000000
 G0 X-10.186361 Y-16.476250 Z0.310000
 G0 X-9.990973 Y-16.936491 Z0.310000
 G1 X-9.990973 Y-16.936491 Z0.000000
 G0 X-9.990973 Y-16.936491 Z0.310000
 G0 X-9.791866 Y-17.395136 Z0.310000
 G1 X-9.791866 Y-17.395136 Z0.000000
 G0 X-9.791866 Y-17.395136 Z0.310000
 G0 X-9.589116 Y-17.852180 Z0.310000
 G1 X-9.589116 Y-17.852180 Z0.000000
 G0 X-9.589116 Y-17.852180 Z0.310000
 G0 X-9.382791 Y-18.307625 Z0.310000
 G1 X-9.382791 Y-18.307625 Z0.000000
 G0 X-9.382791 Y-18.307625 Z0.310000
 G0 X-9.172961 Y-18.761463 Z0.310000
 G1 X-9.172961 Y-18.761463 Z0.000000
 G0 X-9.172961 Y-18.761463 Z0.310000
 G0 X-9.132871 Y-17.647631 Z0.310000
 G1 X-9.132871 Y-17.647631 Z0.000000
 G0 X-9.132871 Y-17.647631 Z0.310000
 G0 X-9.334021 Y-17.194195 Z0.310000
 G1 X-9.334021 Y-17.194195 Z0.000000
 G0 X-9.334021 Y-17.194195 Z0.310000
 G0 X-9.531528 Y-16.739231 Z0.310000
 G1 X-9.531528 Y-16.739231 Z0.000000
 G0 X-9.531528 Y-16.739231 Z0.310000
 G0 X-9.725325 Y-16.282742 Z0.310000
 G1 X-9.725325 Y-16.282742 Z0.000000
 G0 X-9.725325 Y-16.282742 Z0.310000
 G0 X-9.264288 Y-16.089235 Z0.310000
 G1 X-9.264288 Y-16.089235 Z0.000000
 G0 X-9.264288 Y-16.089235 Z0.310000
 G0 X-9.072085 Y-16.541969 Z0.310000
 G1 X-9.072085 Y-16.541969 Z0.000000
 G0 X-9.072085 Y-16.541969 Z0.310000
 G0 X-8.876174 Y-16.993254 Z0.310000
 G1 X-8.876174 Y-16.993254 Z0.000000
 G0 X-8.876174 Y-16.993254 Z0.310000
 G0 X-8.676626 Y-17.443081 Z0.310000
 G1 X-8.676626 Y-17.443081 Z0.000000
 G0 X-8.676626 Y-17.443081 Z0.310000
 G0 X-8.473508 Y-17.891447 Z0.310000
 G1 X-8.473508 Y-17.891447 Z0.000000
 G0 X-8.473508 Y-17.891447 Z0.310000
 G0 X-8.928149 Y-18.099535 Z0.310000
 G1 X-8.928149 Y-18.099535 Z0.000000
 G0 X-8.928149 Y-18.099535 Z0.310000
 G0 X-8.719924 Y-18.549904 Z0.310000
 G1 X-8.719924 Y-18.549904 Z0.000000
 G0 X-8.719924 Y-18.549904 Z0.310000
 G0 X-8.508263 Y-18.998735 Z0.310000
 G1 X-8.508263 Y-18.998735 Z0.000000
 G0 X-8.508263 Y-18.998735 Z0.310000
 G0 X-8.959695 Y-19.213699 Z0.310000
 G1 X-8.959695 Y-19.213699 Z0.000000
 G0 X-8.959695 Y-19.213699 Z0.310000
 G0 X-8.743058 Y-19.664328 Z0.310000
 G1 X-8.743058 Y-19.664328 Z0.000000
 G0 X-8.743058 Y-19.664328 Z0.310000
 G0 X-8.523108 Y-20.113350 Z0.310000
 G1 X-8.523108 Y-20.113350 Z0.000000
 G0 X-8.523108 Y-20.113350 Z0.310000
 G0 X-8.299892 Y-20.560757 Z0.310000
 G1 X-8.299892 Y-20.560757 Z0.000000
 G0 X-8.299892 Y-20.560757 Z0.310000
 G0 X-7.853293 Y-20.335926 Z0.310000
 G1 X-7.853293 Y-20.335926 Z0.000000
 G0 X-7.853293 Y-20.335926 Z0.310000
 G0 X-8.074892 Y-19.891758 Z0.310000
 G1 X-8.074892 Y-19.891758 Z0.000000
 G0 X-8.074892 Y-19.891758 Z0.310000
 G0 X-8.293232 Y-19.446026 Z0.310000
 G1 X-8.293232 Y-19.446026 Z0.000000
 G0 X-8.293232 Y-19.446026 Z0.310000
 G0 X-7.843405 Y-19.227724 Z0.310000
 G1 X-7.843405 Y-19.227724 Z0.000000
 G0 X-7.843405 Y-19.227724 Z0.310000
 G0 X-8.073459 Y-21.006548 Z0.310000
 G1 X-8.073459 Y-21.006548 Z0.000000
 G0 X-8.073459 Y-21.006548 Z0.310000
 G0 X-7.843858 Y-21.450712 Z0.310000
 G1 X-7.843858 Y-21.450712 Z0.000000
 G0 X-7.843858 Y-21.450712 Z0.310000
 G0 X-7.611136 Y-21.893250 Z0.310000
 G1 X-7.611136 Y-21.893250 Z0.000000
 G0 X-7.611136 Y-21.893250 Z0.310000
 G0 X-7.169413 Y-21.658983 Z0.310000
 G1 X-7.169413 Y-21.658983 Z0.000000
 G0 X-7.169413 Y-21.658983 Z0.310000
 G0 X-7.400506 Y-21.219542 Z0.310000
 G1 X-7.400506 Y-21.219542 Z0.000000
 G0 X-7.400506 Y-21.219542 Z0.310000
 G0 X-7.628482 Y-20.778522 Z0.310000
 G1 X-7.628482 Y-20.778522 Z0.000000
 G0 X-7.628482 Y-20.778522 Z0.310000
 G0 X-7.183505 Y-20.550497 Z0.310000
 G1 X-7.183505 Y-20.550497 Z0.000000
 G0 X-7.183505 Y-20.550497 Z0.310000
 G0 X-7.406695 Y-20.111094 Z0.310000
 G1 X-7.406695 Y-20.111094 Z0.000000
 G0 X-7.406695 Y-20.111094 Z0.310000
 G0 X-7.626677 Y-19.670166 Z0.310000
 G1 X-7.626677 Y-19.670166 Z0.000000
 G0 X-7.626677 Y-19.670166 Z0.310000
 G0 X-6.957155 Y-20.988373 Z0.310000
 G1 X-6.957155 Y-20.988373 Z0.000000
 G0 X-6.957155 Y-20.988373 Z0.310000
 G0 X-6.727691 Y-21.424715 Z0.310000
 G1 X-6.727691 Y-21.424715 Z0.000000
 G0 X-6.727691 Y-21.424715 Z0.310000
 G0 X-6.495157 Y-21.859522 Z0.310000
 G1 X-6.495157 Y-21.859522 Z0.000000
 G0 X-6.495157 Y-21.859522 Z0.310000
 G0 X-6.935249 Y-22.096840 Z0.310000
 G1 X-6.935249 Y-22.096840 Z0.000000
 G0 X-6.935249 Y-22.096840 Z0.310000
 G0 X-6.698059 Y-22.533110 Z0.310000
 G1 X-6.698059 Y-22.533110 Z0.000000
 G0 X-6.698059 Y-22.533110 Z0.310000
 G0 X-6.457890 Y-22.967793 Z0.310000
 G1 X-6.457890 Y-22.967793 Z0.000000
 G0 X-6.457890 Y-22.967793 Z0.310000
 G0 X-6.894712 Y-23.211073 Z0.310000
 G1 X-6.894712 Y-23.211073 Z0.000000
 G0 X-6.894712 Y-23.211073 Z0.310000
 G0 X-6.649963 Y-23.647074 Z0.310000
 G1 X-6.649963 Y-23.647074 Z0.000000
 G0 X-6.649963 Y-23.647074 Z0.310000
 G0 X-6.402291 Y-24.081421 Z0.310000
 G1 X-6.402291 Y-24.081421 Z0.000000
 G0 X-6.402291 Y-24.081421 Z0.310000
 G0 X-6.259601 Y-22.292788 Z0.310000
 G1 X-6.259601 Y-22.292788 Z0.000000
 G0 X-6.259601 Y-22.292788 Z0.310000
 G0 X-6.021067 Y-22.724510 Z0.310000
 G1 X-6.021067 Y-22.724510 Z0.000000
 G0 X-6.021067 Y-22.724510 Z0.310000
 G0 X-5.779611 Y-23.154644 Z0.310000
 G1 X-5.779611 Y-23.154644 Z0.000000
 G0 X-5.779611 Y-23.154644 Z0.310000
 G0 X-6.214787 Y-23.400860 Z0.310000
 G1 X-6.214787 Y-23.400860 Z0.000000
 G0 X-6.214787 Y-23.400860 Z0.310000
 G0 X-5.968775 Y-23.832294 Z0.310000
 G1 X-5.968775 Y-23.832294 Z0.000000
 G0 X-5.968775 Y-23.832294 Z0.310000
 G0 X-5.719876 Y-24.262087 Z0.310000
 G1 X-5.719876 Y-24.262087 Z0.000000
 G0 X-5.719876 Y-24.262087 Z0.310000
 G0 X-6.151719 Y-24.514101 Z0.310000
 G1 X-6.151719 Y-24.514101 Z0.000000
 G0 X-6.151719 Y-24.514101 Z0.310000
 G0 X-5.898268 Y-24.945103 Z0.310000
 G1 X-5.898268 Y-24.945103 Z0.000000
 G0 X-5.898268 Y-24.945103 Z0.310000
 G0 X-5.641963 Y-25.374413 Z0.310000
 G1 X-5.641963 Y-25.374413 Z0.000000
 G0 X-5.641963 Y-25.374413 Z0.310000
 G0 X-5.382824 Y-25.802017 Z0.310000
 G1 X-5.382824 Y-25.802017 Z0.000000
 G0 X-5.382824 Y-25.802017 Z0.310000
 G0 X-4.956075 Y-25.541471 Z0.310000
 G1 X-4.956075 Y-25.541471 Z0.000000
 G0 X-4.956075 Y-25.541471 Z0.310000
 G0 X-5.120878 Y-26.227909 Z0.310000
 G1 X-5.120878 Y-26.227909 Z0.000000
 G0 X-5.120878 Y-26.227909 Z0.310000
 G0 X-4.856139 Y-26.652069 Z0.310000
 G1 X-4.856139 Y-26.652069 Z0.000000
 G0 X-4.856139 Y-26.652069 Z0.310000
 G0 X-4.588593 Y-27.074465 Z0.310000
 G1 X-4.588593 Y-27.074465 Z0.000000
 G0 X-4.588593 Y-27.074465 Z0.310000
 G0 X-4.318220 Y-27.495056 Z0.310000
 G1 X-4.318220 Y-27.495056 Z0.000000
 G0 X-4.318220 Y-27.495056 Z0.310000
 G0 X-4.167092 Y-26.805510 Z0.310000
 G1 X-4.167092 Y-26.805510 Z0.000000
 G0 X-4.167092 Y-26.805510 Z0.310000
 G0 X-4.432854 Y-26.385929 Z0.310000
 G1 X-4.432854 Y-26.385929 Z0.000000
 G0 X-4.432854 Y-26.385929 Z0.310000
 G0 X-4.695848 Y-25.964565 Z0.310000
 G1 X-4.695848 Y-25.964565 Z0.000000
 G0 X-4.695848 Y-25.964565 Z0.310000
 G0 X-4.270818 Y-25.701221 Z0.310000
 G1 X-4.270818 Y-25.701221 Z0.000000
 G0 X-4.270818 Y-25.701221 Z0.310000
 G0 X-4.529325 Y-25.280924 Z0.310000
 G1 X-4.529325 Y-25.280924 Z0.000000
 G0 X-4.529325 Y-25.280924 Z0.310000
 G0 X-4.785044 Y-24.858959 Z0.310000
 G1 X-4.785044 Y-24.858959 Z0.000000
 G0 X-4.785044 Y-24.858959 Z0.310000
 G0 X-5.037954 Y-24.435339 Z0.310000
 G1 X-5.037954 Y-24.435339 Z0.000000
 G0 X-5.037954 Y-24.435339 Z0.310000
 G0 X-5.288033 Y-24.010071 Z0.310000
 G1 X-5.288033 Y-24.010071 Z0.000000
 G0 X-5.288033 Y-24.010071 Z0.310000
 G0 X-5.535259 Y-23.583168 Z0.310000
 G1 X-5.535259 Y-23.583168 Z0.000000
 G0 X-5.535259 Y-23.583168 Z0.310000
 G0 X-5.468112 Y-24.690220 Z0.310000
 G1 X-5.468112 Y-24.690220 Z0.000000
 G0 X-5.468112 Y-24.690220 Z0.310000
 G0 X-5.213503 Y-25.116686 Z0.310000
 G1 X-5.213503 Y-25.116686 Z0.000000
 G0 X-5.213503 Y-25.116686 Z0.310000
 G0 X-4.009569 Y-26.119791 Z0.310000
 G1 X-4.009569 Y-26.119791 Z0.000000
 G0 X-4.009569 Y-26.119791 Z0.310000
 G0 X-3.745592 Y-26.536552 Z0.310000
 G1 X-3.745592 Y-26.536552 Z0.000000
 G0 X-3.745592 Y-26.536552 Z0.310000
 G0 X-3.478867 Y-26.951471 Z0.310000
 G1 X-3.478867 Y-26.951471 Z0.000000
 G0 X-3.478867 Y-26.951471 Z0.310000
 G0 X-3.898543 Y-27.223263 Z0.310000
 G1 X-3.898543 Y-27.223263 Z0.000000
 G0 X-3.898543 Y-27.223263 Z0.310000
 G0 X-3.627188 Y-27.639154 Z0.310000
 G1 X-3.627188 Y-27.639154 Z0.000000
 G0 X-3.627188 Y-27.639154 Z0.310000
 G0 X-4.045000 Y-27.913805 Z0.310000
 G1 X-4.045000 Y-27.913805 Z0.000000
 G0 X-4.045000 Y-27.913805 Z0.310000
 G0 X-3.768914 Y-28.330669 Z0.310000
 G1 X-3.768914 Y-28.330669 Z0.000000
 G0 X-3.768914 Y-28.330669 Z0.310000
 G0 X-3.489941 Y-28.745605 Z0.310000
 G1 X-3.489941 Y-28.745605 Z0.000000
 G0 X-3.489941 Y-28.745605 Z0.310000
 G0 X-3.208036 Y-29.158556 Z0.310000
 G1 X-3.208036 Y-29.158556 Z0.000000
 G0 X-3.208036 Y-29.158556 Z0.310000
 G0 X-2.923100 Y-29.569422 Z0.310000
 G1 X-2.923100 Y-29.569422 Z0.000000
 G0 X-2.923100 Y-29.569422 Z0.310000
 G0 X-2.796111 Y-28.875153 Z0.310000
 G1 X-2.796111 Y-28.875153 Z0.000000
 G0 X-2.796111 Y-28.875153 Z0.310000
 G0 X-3.075981 Y-28.465183 Z0.310000
 G1 X-3.075981 Y-28.465183 Z0.000000
 G0 X-3.075981 Y-28.465183 Z0.310000
 G0 X-3.353006 Y-28.053143 Z0.310000
 G1 X-3.353006 Y-28.053143 Z0.000000
 G0 X-3.353006 Y-28.053143 Z0.310000
 G0 X-2.937099 Y-27.775616 Z0.310000
 G1 X-2.937099 Y-27.775616 Z0.000000
 G0 X-2.937099 Y-27.775616 Z0.310000
 G0 X-3.209375 Y-27.364504 Z0.310000
 G1 X-3.209375 Y-27.364504 Z0.000000
 G0 X-3.209375 Y-27.364504 Z0.310000
 G0 X-2.662021 Y-28.184759 Z0.310000
 G1 X-2.662021 Y-28.184759 Z0.000000
 G0 X-2.662021 Y-28.184759 Z0.310000
 G0 X-2.384186 Y-28.591749 Z0.310000
 G1 X-2.384186 Y-28.591749 Z0.000000
 G0 X-2.384186 Y-28.591749 Z0.310000
 G0 X-2.103524 Y-28.996452 Z0.310000
 G1 X-2.103524 Y-28.996452 Z0.000000
 G0 X-2.103524 Y-28.996452 Z0.310000
 G0 X-2.513312 Y-29.282936 Z0.310000
 G1 X-2.513312 Y-29.282936 Z0.000000
 G0 X-2.513312 Y-29.282936 Z0.310000
 G0 X-2.227494 Y-29.688417 Z0.310000
 G1 X-2.227494 Y-29.688417 Z0.000000
 G0 X-2.227494 Y-29.688417 Z0.310000
 G0 X-2.635030 Y-29.978096 Z0.310000
 G1 X-2.635030 Y-29.978096 Z0.000000
 G0 X-2.635030 Y-29.978096 Z0.310000
 G0 X-2.343671 Y-30.384432 Z0.310000
 G1 X-2.343671 Y-30.384432 Z0.000000
 G0 X-2.343671 Y-30.384432 Z0.310000
 G0 X-2.048780 Y-30.788212 Z0.310000
 G1 X-2.048780 Y-30.788212 Z0.000000
 G0 X-2.048780 Y-30.788212 Z0.310000
 G0 X-1.750003 Y-31.189123 Z0.310000
 G1 X-1.750003 Y-31.189123 Z0.000000
 G0 X-1.750003 Y-31.189123 Z0.310000
 G0 X-1.446675 Y-31.586599 Z0.310000
 G1 X-1.446675 Y-31.586599 Z0.000000
 G0 X-1.446675 Y-31.586599 Z0.310000
 G0 X-1.646362 Y-30.491463 Z0.310000
 G1 X-1.646362 Y-30.491463 Z0.000000
 G0 X-1.646362 Y-30.491463 Z0.310000
 G0 X-1.938574 Y-30.091349 Z0.310000
 G1 X-1.938574 Y-30.091349 Z0.000000
 G0 X-1.938574 Y-30.091349 Z0.310000
 G0 X-1.533478 Y-29.798267 Z0.310000
 G1 X-1.533478 Y-29.798267 Z0.000000
 G0 X-1.533478 Y-29.798267 Z0.310000
 G0 X-1.819957 Y-29.398739 Z0.310000
 G1 X-1.819957 Y-29.398739 Z0.000000
 G0 X-1.819957 Y-29.398739 Z0.310000
 G0 X-1.243943 Y-30.194715 Z0.310000
 G1 X-1.243943 Y-30.194715 Z0.000000
 G0 X-1.243943 Y-30.194715 Z0.310000
 G0 X-0.951387 Y-30.587282 Z0.310000
 G1 X-0.951387 Y-30.587282 Z0.000000
 G0 X-0.951387 Y-30.587282 Z0.310000
 G0 X-1.350695 Y-30.888203 Z0.310000
 G1 X-1.350695 Y-30.888203 Z0.000000
 G0 X-1.350695 Y-30.888203 Z0.310000
 G0 X-1.051202 Y-31.280659 Z0.310000
 G1 X-1.051202 Y-31.280659 Z0.000000
 G0 X-1.051202 Y-31.280659 Z0.310000
 G0 X-0.655728 Y-30.974716 Z0.310000
 G1 X-0.655728 Y-30.974716 Z0.000000
 G0 X-0.655728 Y-30.974716 Z0.310000
 G0 X-7.136517 Y-22.773432 Z0.310000
 G1 X-7.136517 Y-22.773432 Z0.000000
 G0 X-7.136517 Y-22.773432 Z0.310000
 G0 X-7.375340 Y-22.334156 Z0.310000
 G1 X-7.375340 Y-22.334156 Z0.000000
 G0 X-7.375340 Y-22.334156 Z0.310000
 G0 X-8.056830 Y-18.783773 Z0.310000
 G1 X-8.056830 Y-18.783773 Z0.000000
 G0 X-8.056830 Y-18.783773 Z0.310000
 G0 X-8.266888 Y-18.338345 Z0.310000
 G1 X-8.266888 Y-18.338345 Z0.000000
 G0 X-8.266888 Y-18.338345 Z0.310000
 G0 X-9.452713 Y-15.635056 Z0.310000
 G1 X-9.452713 Y-15.635056 Z0.000000
 G0 X-9.452713 Y-15.635056 Z0.310000
 G0 X-9.637288 Y-15.179444 Z0.310000
 G1 X-9.637288 Y-15.179444 Z0.000000
 G0 X-9.637288 Y-15.179444 Z0.310000
 G0 X-11.645988 Y-9.133758 Z0.310000
 G1 X-11.645988 Y-9.133758 Z0.000000
 G0 X-11.645988 Y-9.133758 Z0.310000
 G0 X-11.766945 Y-8.660014 Z0.310000
 G1 X-11.766945 Y-8.660014 Z0.000000
 G0 X-11.766945 Y-8.660014 Z0.310000
 G0 X-12.896097 Y0.483898 Z0.310000
 G1 X-12.896097 Y0.483898 Z0.000000
 G0 X-12.896097 Y0.483898 Z0.310000
 G0 X-12.884480 Y0.967979 Z0.310000
 G1 X-12.884480 Y0.967979 Z0.000000
 G0 X-12.884480 Y0.967979 Z0.310000
 G0 X-12.865290 Y1.452126 Z0.310000
 G1 X-12.865290 Y1.452126 Z0.000000
 G0 X-12.865290 Y1.452126 Z0.310000
 G0 X-12.838672 Y1.936232 Z0.310000
 G1 X-12.838672 Y1.936232 Z0.000000
 G0 X-12.838672 Y1.936232 Z0.310000
 G0 X-12.804771 Y2.420190 Z0.310000
 G1 X-12.804771 Y2.420190 Z0.000000
 G0 X-12.804771 Y2.420190 Z0.310000
 G0 X-12.763737 Y2.903905 Z0.310000
 G1 X-12.763737 Y2.903905 Z0.000000
 G0 X-12.763737 Y2.903905 Z0.310000
 G0 X-12.715714 Y3.387280 Z0.310000
 G1 X-12.715714 Y3.387280 Z0.000000
 G0 X-12.715714 Y3.387280 Z0.310000
 G0 X-12.660851 Y3.870220 Z0.310000
 G1 X-12.660851 Y3.870220 Z0.000000
 G0 X-12.660851 Y3.870220 Z0.310000
 G0 X-12.599291 Y4.352643 Z0.310000
 G1 X-12.599291 Y4.352643 Z0.000000
 G0 X-12.599291 Y4.352643 Z0.310000
 G0 X-12.531174 Y4.834471 Z0.310000
 G1 X-12.531174 Y4.834471 Z0.000000
 G0 X-12.531174 Y4.834471 Z0.310000
 G0 X-13.025773 Y4.907759 Z0.310000
 G1 X-13.025773 Y4.907759 Z0.000000
 G0 X-13.025773 Y4.907759 Z0.310000
 G0 X-13.094827 Y4.419308 Z0.310000
 G1 X-13.094827 Y4.419308 Z0.000000
 G0 X-13.094827 Y4.419308 Z0.310000
 G0 X-13.157252 Y3.930110 Z0.310000
 G1 X-13.157252 Y3.930110 Z0.000000
 G0 X-13.157252 Y3.930110 Z0.310000
 G0 X-13.212902 Y3.440240 Z0.310000
 G1 X-13.212902 Y3.440240 Z0.000000
 G0 X-13.212902 Y3.440240 Z0.310000
 G0 X-12.950240 Y5.395394 Z0.310000
 G1 X-12.950240 Y5.395394 Z0.000000
 G0 X-12.950240 Y5.395394 Z0.310000
 G0 X-12.868373 Y5.882147 Z0.310000
 G1 X-12.868373 Y5.882147 Z0.000000
 G0 X-12.868373 Y5.882147 Z0.310000
 G0 X-12.780319 Y6.367960 Z0.310000
 G1 X-12.780319 Y6.367960 Z0.000000
 G0 X-12.780319 Y6.367960 Z0.310000
 G0 X-12.686221 Y6.852775 Z0.310000
 G1 X-12.686221 Y6.852775 Z0.000000
 G0 X-12.686221 Y6.852775 Z0.310000
 G0 X-12.586218 Y7.336534 Z0.310000
 G1 X-12.586218 Y7.336534 Z0.000000
 G0 X-12.586218 Y7.336534 Z0.310000
 G0 X-13.075251 Y7.440685 Z0.310000
 G1 X-13.075251 Y7.440685 Z0.000000
 G0 X-13.075251 Y7.440685 Z0.310000
 G0 X-12.968213 Y7.929090 Z0.310000
 G1 X-12.968213 Y7.929090 Z0.000000
 G0 X-12.968213 Y7.929090 Z0.310000
 G0 X-12.855492 Y8.416216 Z0.310000
 G1 X-12.855492 Y8.416216 Z0.000000
 G0 X-12.855492 Y8.416216 Z0.310000
 G0 X-12.737219 Y8.902023 Z0.310000
 G1 X-12.737219 Y8.902023 Z0.000000
 G0 X-12.737219 Y8.902023 Z0.310000
 G0 X-12.613526 Y9.386479 Z0.310000
 G1 X-12.613526 Y9.386479 Z0.000000
 G0 X-12.613526 Y9.386479 Z0.310000
 G0 X-13.176470 Y6.951041 Z0.310000
 G1 X-13.176470 Y6.951041 Z0.000000
 G0 X-13.176470 Y6.951041 Z0.310000
 G0 X-13.271736 Y6.460204 Z0.310000
 G1 X-13.271736 Y6.460204 Z0.000000
 G0 X-13.271736 Y6.460204 Z0.310000
 G0 X-13.360909 Y5.968223 Z0.310000
 G1 X-13.360909 Y5.968223 Z0.000000
 G0 X-13.360909 Y5.968223 Z0.310000
 G0 X-13.443837 Y5.475152 Z0.310000
 G1 X-13.443837 Y5.475152 Z0.000000
 G0 X-13.443837 Y5.475152 Z0.310000
 G0 X-13.520372 Y4.981047 Z0.310000
 G1 X-13.520372 Y4.981047 Z0.000000
 G0 X-13.520372 Y4.981047 Z0.310000
 G0 X-13.590362 Y4.485974 Z0.310000
 G1 X-13.590362 Y4.485974 Z0.000000
 G0 X-13.590362 Y4.485974 Z0.310000
 G0 X-13.653652 Y3.990000 Z0.310000
 G1 X-13.653652 Y3.990000 Z0.000000
 G0 X-13.653652 Y3.990000 Z0.310000
 G0 X-13.710090 Y3.493199 Z0.310000
 G1 X-13.710090 Y3.493199 Z0.000000
 G0 X-13.710090 Y3.493199 Z0.310000
 G0 X-13.759519 Y2.995652 Z0.310000
 G1 X-13.759519 Y2.995652 Z0.000000
 G0 X-13.759519 Y2.995652 Z0.310000
 G0 X-13.801783 Y2.497446 Z0.310000
 G1 X-13.801783 Y2.497446 Z0.000000
 G0 X-13.801783 Y2.497446 Z0.310000
 G0 X-13.836720 Y1.998673 Z0.310000
 G1 X-13.836720 Y1.998673 Z0.000000
 G0 X-13.836720 Y1.998673 Z0.310000
 G0 X-13.864170 Y1.499432 Z0.310000
 G1 X-13.864170 Y1.499432 Z0.000000
 G0 X-13.864170 Y1.499432 Z0.310000
 G0 X-13.883972 Y0.999829 Z0.310000
 G1 X-13.883972 Y0.999829 Z0.000000
 G0 X-13.883972 Y0.999829 Z0.310000
 G0 X-13.895967 Y0.499978 Z0.310000
 G1 X-13.895967 Y0.499978 Z0.000000
 G0 X-13.895967 Y0.499978 Z0.310000
 G0 X-13.396032 Y0.491938 Z0.310000
 G1 X-13.396032 Y0.491938 Z0.000000
 G0 X-13.396032 Y0.491938 Z0.310000
 G0 X-13.384226 Y0.983904 Z0.310000
 G1 X-13.384226 Y0.983904 Z0.000000
 G0 X-13.384226 Y0.983904 Z0.310000
 G0 X-13.364730 Y1.475779 Z0.310000
 G1 X-13.364730 Y1.475779 Z0.000000
 G0 X-13.364730 Y1.475779 Z0.310000
 G0 X-13.337696 Y1.967452 Z0.310000
 G1 X-13.337696 Y1.967452 Z0.000000
 G0 X-13.337696 Y1.967452 Z0.310000
 G0 X-13.303277 Y2.458818 Z0.310000
 G1 X-13.303277 Y2.458818 Z0.000000
 G0 X-13.303277 Y2.458818 Z0.310000
 G0 X-13.261627 Y2.949779 Z0.310000
 G1 X-13.261627 Y2.949779 Z0.000000
 G0 X-13.261627 Y2.949779 Z0.310000
 G0 X-12.456642 Y5.315636 Z0.310000
 G1 X-12.456642 Y5.315636 Z0.000000
 G0 X-12.456642 Y5.315636 Z0.310000
 G0 X-12.375838 Y5.796071 Z0.310000
 G1 X-12.375838 Y5.796071 Z0.000000
 G0 X-12.375838 Y5.796071 Z0.310000
 G0 X-12.288901 Y6.275716 Z0.310000
 G1 X-12.288901 Y6.275716 Z0.000000
 G0 X-12.288901 Y6.275716 Z0.310000
 G0 X-12.195972 Y6.754508 Z0.310000
 G1 X-12.195972 Y6.754508 Z0.000000
 G0 X-12.195972 Y6.754508 Z0.310000
 G0 X-12.097186 Y7.232382 Z0.310000
 G1 X-12.097186 Y7.232382 Z0.000000
 G0 X-12.097186 Y7.232382 Z0.310000
 G0 X-11.992669 Y7.709287 Z0.310000
 G1 X-11.992669 Y7.709287 Z0.000000
 G0 X-11.992669 Y7.709287 Z0.310000
 G0 X-11.882546 Y8.185178 Z0.310000
 G1 X-11.882546 Y8.185178 Z0.000000
 G0 X-11.882546 Y8.185178 Z0.310000
 G0 X-12.369020 Y8.300697 Z0.310000
 G1 X-12.369020 Y8.300697 Z0.000000
 G0 X-12.369020 Y8.300697 Z0.310000
 G0 X-12.480441 Y7.819189 Z0.310000
 G1 X-12.480441 Y7.819189 Z0.000000
 G0 X-12.480441 Y7.819189 Z0.310000
 G0 X-12.252082 Y8.781019 Z0.310000
 G1 X-12.252082 Y8.781019 Z0.000000
 G0 X-12.252082 Y8.781019 Z0.310000
 G0 X-12.129757 Y9.260118 Z0.310000
 G1 X-12.129757 Y9.260118 Z0.000000
 G0 X-12.129757 Y9.260118 Z0.310000
 G0 X-12.002167 Y9.737963 Z0.310000
 G1 X-12.002167 Y9.737963 Z0.000000
 G0 X-12.002167 Y9.737963 Z0.310000
 G0 X-11.869436 Y10.214522 Z0.310000
 G1 X-11.869436 Y10.214522 Z0.000000
 G0 X-11.869436 Y10.214522 Z0.310000
 G0 X-12.350388 Y10.351217 Z0.310000
 G1 X-12.350388 Y10.351217 Z0.000000
 G0 X-12.350388 Y10.351217 Z0.310000
 G0 X-12.484540 Y9.869554 Z0.310000
 G1 X-12.484540 Y9.869554 Z0.000000
 G0 X-12.484540 Y9.869554 Z0.310000
 G0 X-12.211191 Y10.831450 Z0.310000
 G1 X-12.211191 Y10.831450 Z0.000000
 G0 X-12.211191 Y10.831450 Z0.310000
 G0 X-12.067072 Y11.310226 Z0.310000
 G1 X-12.067072 Y11.310226 Z0.000000
 G0 X-12.067072 Y11.310226 Z0.310000
 G0 X-11.918140 Y11.787528 Z0.310000
 G1 X-11.918140 Y11.787528 Z0.000000
 G0 X-11.918140 Y11.787528 Z0.310000
 G0 X-11.764503 Y12.263336 Z0.310000
 G1 X-11.764503 Y12.263336 Z0.000000
 G0 X-11.764503 Y12.263336 Z0.310000
 G0 X-11.289448 Y12.107380 Z0.310000
 G1 X-11.289448 Y12.107380 Z0.000000
 G0 X-11.289448 Y12.107380 Z0.310000
 G0 X-11.441583 Y11.636226 Z0.310000
 G1 X-11.441583 Y11.636226 Z0.000000
 G0 X-11.441583 Y11.636226 Z0.310000
 G0 X-11.589029 Y11.163683 Z0.310000
 G1 X-11.589029 Y11.163683 Z0.000000
 G0 X-11.589029 Y11.163683 Z0.310000
 G0 X-11.731684 Y10.689771 Z0.310000
 G1 X-11.731684 Y10.689771 Z0.000000
 G0 X-11.731684 Y10.689771 Z0.310000
 G0 X-11.252176 Y10.548093 Z0.310000
 G1 X-11.252176 Y10.548093 Z0.000000
 G0 X-11.252176 Y10.548093 Z0.310000
 G0 X-11.388485 Y10.077827 Z0.310000
 G1 X-11.388485 Y10.077827 Z0.000000
 G0 X-11.388485 Y10.077827 Z0.310000
 G0 X-11.519794 Y9.606373 Z0.310000
 G1 X-11.519794 Y9.606373 Z0.000000
 G0 X-11.519794 Y9.606373 Z0.310000
 G0 X-11.132726 Y12.577125 Z0.310000
 G1 X-11.132726 Y12.577125 Z0.000000
 G0 X-11.132726 Y12.577125 Z0.310000
 G0 X-10.971515 Y13.045444 Z0.310000
 G1 X-10.971515 Y13.045444 Z0.000000
 G0 X-10.971515 Y13.045444 Z0.310000
 G0 X-10.805914 Y13.512325 Z0.310000
 G1 X-10.805914 Y13.512325 Z0.000000
 G0 X-10.805914 Y13.512325 Z0.310000
 G0 X-10.636018 Y13.977753 Z0.310000
 G1 X-10.636018 Y13.977753 Z0.000000
 G0 X-10.636018 Y13.977753 Z0.310000
 G0 X-10.461922 Y14.441718 Z0.310000
 G1 X-10.461922 Y14.441718 Z0.000000
 G0 X-10.461922 Y14.441718 Z0.310000
 G0 X-10.929267 Y14.619450 Z0.310000
 G1 X-10.929267 Y14.619450 Z0.000000
 G0 X-10.929267 Y14.619450 Z0.310000
 G0 X-10.749494 Y15.086011 Z0.310000
 G1 X-10.749494 Y15.086011 Z0.000000
 G0 X-10.749494 Y15.086011 Z0.310000
 G0 X-10.565698 Y15.551003 Z0.310000
 G1 X-10.565698 Y15.551003 Z0.000000
 G0 X-10.565698 Y15.551003 Z0.310000
 G0 X-11.104925 Y14.151322 Z0.310000
 G1 X-11.104925 Y14.151322 Z0.000000
 G0 X-11.104925 Y14.151322 Z0.310000
 G0 X-10.499511 Y12.880484 Z0.310000
 G1 X-10.499511 Y12.880484 Z0.000000
 G0 X-10.499511 Y12.880484 Z0.310000
 G0 X-10.659189 Y12.416615 Z0.310000
 G1 X-10.659189 Y12.416615 Z0.000000
 G0 X-10.659189 Y12.416615 Z0.310000
 G0 X-10.814393 Y11.951423 Z0.310000
 G1 X-10.814393 Y11.951423 Z0.000000
 G0 X-10.814393 Y11.951423 Z0.310000
 G0 X-10.965025 Y11.484923 Z0.310000
 G1 X-10.965025 Y11.484923 Z0.000000
 G0 X-10.965025 Y11.484923 Z0.310000
 G0 X-11.110986 Y11.017139 Z0.310000
 G1 X-11.110986 Y11.017139 Z0.000000
 G0 X-11.110986 Y11.017139 Z0.310000
 G0 X-11.606262 Y12.737634 Z0.310000
 G1 X-11.606262 Y12.737634 Z0.000000
 G0 X-11.606262 Y12.737634 Z0.310000
 G0 X-11.443519 Y13.210405 Z0.310000
 G1 X-11.443519 Y13.210405 Z0.000000
 G0 X-11.443519 Y13.210405 Z0.310000
 G0 X-11.276374 Y13.681639 Z0.310000
 G1 X-11.276374 Y13.681639 Z0.000000
 G0 X-11.276374 Y13.681639 Z0.310000
 G0 X-10.335453 Y13.343012 Z0.310000
 G1 X-10.335453 Y13.343012 Z0.000000
 G0 X-10.335453 Y13.343012 Z0.310000
 G0 X-10.167111 Y13.804183 Z0.310000
 G1 X-10.167111 Y13.804183 Z0.000000
 G0 X-10.167111 Y13.804183 Z0.310000
 G0 X-9.994576 Y14.263987 Z0.310000
 G1 X-9.994576 Y14.263987 Z0.000000
 G0 X-9.994576 Y14.263987 Z0.310000
 G0 X-9.817939 Y14.722411 Z0.310000
 G1 X-9.817939 Y14.722411 Z0.000000
 G0 X-9.817939 Y14.722411 Z0.310000
 G0 X-10.283716 Y14.904211 Z0.310000
 G1 X-10.283716 Y14.904211 Z0.000000
 G0 X-10.283716 Y14.904211 Z0.310000
 G0 X-10.101493 Y15.365224 Z0.310000
 G1 X-10.101493 Y15.365224 Z0.000000
 G0 X-10.101493 Y15.365224 Z0.310000
 G0 X-9.915338 Y15.824738 Z0.310000
 G1 X-9.915338 Y15.824738 Z0.000000
 G0 X-9.915338 Y15.824738 Z0.310000
 G0 X-10.377961 Y16.014418 Z0.310000
 G1 X-10.377961 Y16.014418 Z0.000000
 G0 X-10.377961 Y16.014418 Z0.310000
 G0 X-10.186361 Y16.476250 Z0.310000
 G1 X-10.186361 Y16.476250 Z0.000000
 G0 X-10.186361 Y16.476250 Z0.310000
 G0 X-9.990973 Y16.936491 Z0.310000
 G1 X-9.990973 Y16.936491 Z0.000000
 G0 X-9.990973 Y16.936491 Z0.310000
 G0 X-9.791866 Y17.395136 Z0.310000
 G1 X-9.791866 Y17.395136 Z0.000000
 G0 X-9.791866 Y17.395136 Z0.310000
 G0 X-9.589116 Y17.852180 Z0.310000
 G1 X-9.589116 Y17.852180 Z0.000000
 G0 X-9.589116 Y17.852180 Z0.310000
 G0 X-9.382791 Y18.307625 Z0.310000
 G1 X-9.382791 Y18.307625 Z0.000000
 G0 X-9.382791 Y18.307625 Z0.310000
 G0 X-9.172961 Y18.761463 Z0.310000
 G1 X-9.172961 Y18.761463 Z0.000000
 G0 X-9.172961 Y18.761463 Z0.310000
 G0 X-9.132871 Y17.647631 Z0.310000
 G1 X-9.132871 Y17.647631 Z0.000000
 G0 X-9.132871 Y17.647631 Z0.310000
 G0 X-9.334021 Y17.194195 Z0.310000
 G1 X-9.334021 Y17.194195 Z0.000000
 G0 X-9.334021 Y17.194195 Z0.310000
 G0 X-9.531528 Y16.739231 Z0.310000
 G1 X-9.531528 Y16.739231 Z0.000000
 G0 X-9.531528 Y16.739231 Z0.310000
 G0 X-9.725325 Y16.282742 Z0.310000
 G1 X-9.725325 Y16.282742 Z0.000000
 G0 X-9.725325 Y16.282742 Z0.310000
 G0 X-9.264288 Y16.089235 Z0.310000
 G1 X-9.264288 Y16.089235 Z0.000000
 G0 X-9.264288 Y16.089235 Z0.310000
 G0 X-9.072085 Y16.541969 Z0.310000
 G1 X-9.072085 Y16.541969 Z0.000000
 G0 X-9.072085 Y16.541969 Z0.310000
 G0 X-8.876174 Y16.993254 Z0.310000
 G1 X-8.876174 Y16.993254 Z0.000000
 G0 X-8.876174 Y16.993254 Z0.310000
 G0 X-8.676626 Y17.443081 Z0.310000
 G1 X-8.676626 Y17.443081 Z0.000000
 G0 X-8.676626 Y17.443081 Z0.310000
 G0 X-8.473508 Y17.891447 Z0.310000
 G1 X-8.473508 Y17.891447 Z0.000000
 G0 X-8.473508 Y17.891447 Z0.310000
 G0 X-8.928149 Y18.099535 Z0.310000
 G1 X-8.928149 Y18.099535 Z0.000000
 G0 X-8.928149 Y18.099535 Z0.310000
 G0 X-8.719924 Y18.549904 Z0.310000
 G1 X-8.719924 Y18.549904 Z0.000000
 G0 X-8.719924 Y18.549904 Z0.310000
 G0 X-8.508263 Y18.998735 Z0.310000
 G1 X-8.508263 Y18.998735 Z0.000000
 G0 X-8.508263 Y18.998735 Z0.310000
 G0 X-8.959695 Y19.213699 Z0.310000
 G1 X-8.959695 Y19.213699 Z0.000000
 G0 X-8.959695 Y19.213699 Z0.310000
 G0 X-8.743058 Y19.664328 Z0.310000
 G1 X-8.743058 Y19.664328 Z0.000000
 G0 X-8.743058 Y19.664328 Z0.310000
 G0 X-8.523108 Y20.113350 Z0.310000
 G1 X-8.523108 Y20.113350 Z0.000000
 G0 X-8.523108 Y20.113350 Z0.310000
 G0 X-8.299892 Y20.560757 Z0.310000
 G1 X-8.299892 Y20.560757 Z0.000000
 G0 X-8.299892 Y20.560757 Z0.310000
 G0 X-7.853293 Y20.335926 Z0.310000
 G1 X-7.853293 Y20.335926 Z0.000000
 G0 X-7.853293 Y20.335926 Z0.310000
 G0 X-8.074892 Y19.891758 Z0.310000
 G1 X-8.074892 Y19.891758 Z0.000000
 G0 X-8.074892 Y19.891758 Z0.310000
 G0 X-8.293232 Y19.446026 Z0.310000
 G1 X-8.293232 Y19.446026 Z0.000000
 G0 X-8.293232 Y19.446026 Z0.310000
 G0 X-7.843405 Y19.227724 Z0.310000
 G1 X-7.843405 Y19.227724 Z0.000000
 G0 X-7.843405 Y19.227724 Z0.310000
 G0 X-8.073459 Y21.006548 Z0.310000
 G1 X-8.073459 Y21.006548 Z0.000000
 G0 X-8.073459 Y21.006548 Z0.310000
 G0 X-7.843858 Y21.450712 Z0.310000
 G1 X-7.843858 Y21.450712 Z0.000000
 G0 X-7.843858 Y21.450712 Z0.310000
 G0 X-7.611136 Y21.893250 Z0.310000
 G1 X-7.611136 Y21.893250 Z0.000000
 G0 X-7.611136 Y21.893250 Z0.310000
 G0 X-7.169413 Y21.658983 Z0.310000
 G1 X-7.169413 Y21.658983 Z0.000000
 G0 X-7.169413 Y21.658983 Z0.310000
 G0 X-7.400506 Y21.219542 Z0.310000
 G1 X-7.400506 Y21.219542 Z0.000000
 G0 X-7.400506 Y21.219542 Z0.310000
 G0 X-7.628482 Y20.778522 Z0.310000
 G1 X-7.628482 Y20.778522 Z0.000000
 G0 X-7.628482 Y20.778522 Z0.310000
 G0 X-7.183505 Y20.550497 Z0.310000
 G1 X-7.183505 Y20.550497 Z0.000000
 G0 X-7.183505 Y20.550497 Z0.310000
 G0 X-7.406695 Y20.111094 Z0.310000
 G1 X-7.406695 Y20.111094 Z0.000000
 G0 X-7.406695 Y20.111094 Z0.310000
 G0 X-7.626677 Y19.670166 Z0.310000
 G1 X-7.626677 Y19.670166 Z0.000000
 G0 X-7.626677 Y19.670166 Z0.310000
 G0 X-6.957155 Y20.988373 Z0.310000
 G1 X-6.957155 Y20.988373 Z0.000000
 G0 X-6.957155 Y20.988373 Z0.310000
 G0 X-6.727691 Y21.424715 Z0.310000
 G1 X-6.727691 Y21.424715 Z0.000000
 G0 X-6.727691 Y21.424715 Z0.310000
 G0 X-6.495157 Y21.859522 Z0.310000
 G1 X-6.495157 Y21.859522 Z0.000000
 G0 X-6.495157 Y21.859522 Z0.310000
 G0 X-6.935249 Y22.096840 Z0.310000
 G1 X-6.935249 Y22.096840 Z0.000000
 G0 X-6.935249 Y22.096840 Z0.310000
 G0 X-6.698059 Y22.533110 Z0.310000
 G1 X-6.698059 Y22.533110 Z0.000000
 G0 X-6.698059 Y22.533110 Z0.310000
 G0 X-6.457890 Y22.967793 Z0.310000
 G1 X-6.457890 Y22.967793 Z0.000000
 G0 X-6.457890 Y22.967793 Z0.310000
 G0 X-6.894712 Y23.211073 Z0.310000
 G1 X-6.894712 Y23.211073 Z0.000000
 G0 X-6.894712 Y23.211073 Z0.310000
 G0 X-6.649963 Y23.647074 Z0.310000
 G1 X-6.649963 Y23.647074 Z0.000000
 G0 X-6.649963 Y23.647074 Z0.310000
 G0 X-6.402291 Y24.081421 Z0.310000
 G1 X-6.402291 Y24.081421 Z0.000000
 G0 X-6.402291 Y24.081421 Z0.310000
 G0 X-6.259601 Y22.292788 Z0.310000
 G1 X-6.259601 Y22.292788 Z0.000000
 G0 X-6.259601 Y22.292788 Z0.310000
 G0 X-6.021067 Y22.724510 Z0.310000
 G1 X-6.021067 Y22.724510 Z0.000000
 G0 X-6.021067 Y22.724510 Z0.310000
 G0 X-5.779611 Y23.154644 Z0.310000
 G1 X-5.779611 Y23.154644 Z0.000000
 G0 X-5.779611 Y23.154644 Z0.310000
 G0 X-6.214787 Y23.400860 Z0.310000
 G1 X-6.214787 Y23.400860 Z0.000000
 G0 X-6.214787 Y23.400860 Z0.310000
 G0 X-5.968775 Y23.832294 Z0.310000
 G1 X-5.968775 Y23.832294 Z0.000000
 G0 X-5.968775 Y23.832294 Z0.310000
 G0 X-5.719876 Y24.262087 Z0.310000
 G1 X-5.719876 Y24.262087 Z0.000000
 G0 X-5.719876 Y24.262087 Z0.310000
 G0 X-6.151719 Y24.514101 Z0.310000
 G1 X-6.151719 Y24.514101 Z0.000000
 G0 X-6.151719 Y24.514101 Z0.310000
 G0 X-5.898268 Y24.945103 Z0.310000
 G1 X-5.898268 Y24.945103 Z0.000000
 G0 X-5.898268 Y24.945103 Z0.310000
 G0 X-5.641963 Y25.374413 Z0.310000
 G1 X-5.641963 Y25.374413 Z0.000000
 G0 X-5.641963 Y25.374413 Z0.310000
 G0 X-5.382824 Y25.802017 Z0.310000
 G1 X-5.382824 Y25.802017 Z0.000000
 G0 X-5.382824 Y25.802017 Z0.310000
 G0 X-4.956075 Y25.541471 Z0.310000
 G1 X-4.956075 Y25.541471 Z0.000000
 G0 X-4.956075 Y25.541471 Z0.310000
 G0 X-5.120878 Y26.227909 Z0.310000
 G1 X-5.120878 Y26.227909 Z0.000000
 G0 X-5.120878 Y26.227909 Z0.310000
 G0 X-4.856139 Y26.652069 Z0.310000
 G1 X-4.856139 Y26.652069 Z0.000000
 G0 X-4.856139 Y26.652069 Z0.310000
 G0 X-4.588593 Y27.074465 Z0.310000
 G1 X-4.588593 Y27.074465 Z0.000000
 G0 X-4.588593 Y27.074465 Z0.310000
 G0 X-4.318220 Y27.495056 Z0.310000
 G1 X-4.318220 Y27.495056 Z0.000000
 G0 X-4.318220 Y27.495056 Z0.310000
 G0 X-4.167092 Y26.805510 Z0.310000
 G1 X-4.167092 Y26.805510 Z0.000000
 G0 X-4.167092 Y26.805510 Z0.310000
 G0 X-4.432854 Y26.385929 Z0.310000
 G1 X-4.432854 Y26.385929 Z0.000000
 G0 X-4.432854 Y26.385929 Z0.310000
 G0 X-4.695848 Y25.964565 Z0.310000
 G1 X-4.695848 Y25.964565 Z0.000000
 G0 X-4.695848 Y25.964565 Z0.310000
 G0 X-4.270818 Y25.701221 Z0.310000
 G1 X-4.270818 Y25.701221 Z0.000000
 G0 X-4.270818 Y25.701221 Z0.310000
 G0 X-4.529325 Y25.280924 Z0.310000
 G1 X-4.529325 Y25.280924 Z0.000000
 G0 X-4.529325 Y25.280924 Z0.310000
 G0 X-4.785044 Y24.858959 Z0.310000
 G1 X-4.785044 Y24.858959 Z0.000000
 G0 X-4.785044 Y24.858959 Z0.310000
 G0 X-5.037954 Y24.435339 Z0.310000
 G1 X-5.037954 Y24.435339 Z0.000000
 G0 X-5.037954 Y24.435339 Z0.310000
 G0 X-5.288033 Y24.010071 Z0.310000
 G1 X-5.288033 Y24.010071 Z0.000000
 G0 X-5.288033 Y24.010071 Z0.310000
 G0 X-5.535259 Y23.583168 Z0.310000
 G1 X-5.535259 Y23.583168 Z0.000000
 G0 X-5.535259 Y23.583168 Z0.310000
 G0 X-5.468112 Y24.690220 Z0.310000
 G1 X-5.468112 Y24.690220 Z0.000000
 G0 X-5.468112 Y24.690220 Z0.310000
 G0 X-5.213503 Y25.116686 Z0.310000
 G1 X-5.213503 Y25.116686 Z0.000000
 G0 X-5.213503 Y25.116686 Z0.310000
 G0 X-4.009569 Y26.119791 Z0.310000
 G1 X-4.009569 Y26.119791 Z0.000000
 G0 X-4.009569 Y26.119791 Z0.310000
 G0 X-3.745592 Y26.536552 Z0.310000
 G1 X-3.745592 Y26.536552 Z0.000000
 G0 X-3.745592 Y26.536552 Z0.310000
 G0 X-3.478867 Y26.951471 Z0.310000
 G1 X-3.478867 Y26.951471 Z0.000000
 G0 X-3.478867 Y26.951471 Z0.310000
 G0 X-3.898543 Y27.223263 Z0.310000
 G1 X-3.898543 Y27.223263 Z0.000000
 G0 X-3.898543 Y27.223263 Z0.310000
 G0 X-3.627188 Y27.639154 Z0.310000
 G1 X-3.627188 Y27.639154 Z0.000000
 G0 X-3.627188 Y27.639154 Z0.310000
 G0 X-4.045000 Y27.913805 Z0.310000
 G1 X-4.045000 Y27.913805 Z0.000000
 G0 X-4.045000 Y27.913805 Z0.310000
 G0 X-3.768914 Y28.330669 Z0.310000
 G1 X-3.768914 Y28.330669 Z0.000000
 G0 X-3.768914 Y28.330669 Z0.310000
 G0 X-3.489941 Y28.745605 Z0.310000
 G1 X-3.489941 Y28.745605 Z0.000000
 G0 X-3.489941 Y28.745605 Z0.310000
 G0 X-3.208036 Y29.158556 Z0.310000
 G1 X-3.208036 Y29.158556 Z0.000000
 G0 X-3.208036 Y29.158556 Z0.310000
 G0 X-2.923100 Y29.569422 Z0.310000
 G1 X-2.923100 Y29.569422 Z0.000000
 G0 X-2.923100 Y29.569422 Z0.310000
 G0 X-2.796111 Y28.875153 Z0.310000
 G1 X-2.796111 Y28.875153 Z0.000000
 G0 X-2.796111 Y28.875153 Z0.310000
 G0 X-3.075981 Y28.465183 Z0.310000
 G1 X-3.075981 Y28.465183 Z0.000000
 G0 X-3.075981 Y28.465183 Z0.310000
 G0 X-3.353006 Y28.053143 Z0.310000
 G1 X-3.353006 Y28.053143 Z0.000000
 G0 X-3.353006 Y28.053143 Z0.310000
 G0 X-2.937099 Y27.775616 Z0.310000
 G1 X-2.937099 Y27.775616 Z0.000000
 G0 X-2.937099 Y27.775616 Z0.310000
 G0 X-3.209375 Y27.364504 Z0.310000
 G1 X-3.209375 Y27.364504 Z0.000000
 G0 X-3.209375 Y27.364504 Z0.310000
 G0 X-2.662021 Y28.184759 Z0.310000
 G1 X-2.662021 Y28.184759 Z0.000000
 G0 X-2.662021 Y28.184759 Z0.310000
 G0 X-2.384186 Y28.591749 Z0.310000
 G1 X-2.384186 Y28.591749 Z0.000000
 G0 X-2.384186 Y28.591749 Z0.310000
 G0 X-2.103524 Y28.996452 Z0.310000
 G1 X-2.103524 Y28.996452 Z0.000000
 G0 X-2.103524 Y28.996452 Z0.310000
 G0 X-2.513312 Y29.282936 Z0.310000
 G1 X-2.513312 Y29.282936 Z0.000000
 G0 X-2.513312 Y29.282936 Z0.310000
 G0 X-2.227494 Y29.688417 Z0.310000
 G1 X-2.227494 Y29.688417 Z0.000000
 G0 X-2.227494 Y29.688417 Z0.310000
 G0 X-2.635030 Y29.978096 Z0.310000
 G1 X-2.635030 Y29.978096 Z0.000000
 G0 X-2.635030 Y29.978096 Z0.310000
 G0 X-2.343671 Y30.384432 Z0.310000
 G1 X-2.343671 Y30.384432 Z0.000000
 G0 X-2.343671 Y30.384432 Z0.310000
 G0 X-2.048780 Y30.788212 Z0.310000
 G1 X-2.048780 Y30.788212 Z0.000000
 G0 X-2.048780 Y30.788212 Z0.310000
 G0 X-1.750003 Y31.189123 Z0.310000
 G1 X-1.750003 Y31.189123 Z0.000000
 G0 X-1.750003 Y31.189123 Z0.310000
 G0 X-1.446675 Y31.586599 Z0.310000
 G1 X-1.446675 Y31.586599 Z0.000000
 G0 X-1.446675 Y31.586599 Z0.310000
 G0 X-1.646362 Y30.491463 Z0.310000
 G1 X-1.646362 Y30.491463 Z0.000000
 G0 X-1.646362 Y30.491463 Z0.310000
 G0 X-1.938574 Y30.091349 Z0.310000
 G1 X-1.938574 Y30.091349 Z0.000000
 G0 X-1.938574 Y30.091349 Z0.310000
 G0 X-1.533478 Y29.798267 Z0.310000
 G1 X-1.533478 Y29.798267 Z0.000000
 G0 X-1.533478 Y29.798267 Z0.310000
 G0 X-1.819957 Y29.398739 Z0.310000
 G1 X-1.819957 Y29.398739 Z0.000000
 G0 X-1.819957 Y29.398739 Z0.310000
 G0 X-1.243943 Y30.194715 Z0.310000
 G1 X-1.243943 Y30.194715 Z0.000000
 G0 X-1.243943 Y30.194715 Z0.310000
 G0 X-0.951387 Y30.587282 Z0.310000
 G1 X-0.951387 Y30.587282 Z0.000000
 G0 X-0.951387 Y30.587282 Z0.310000
 G0 X-1.350695 Y30.888203 Z0.310000
 G1 X-1.350695 Y30.888203 Z0.000000
 G0 X-1.350695 Y30.888203 Z0.310000
 G0 X-1.051202 Y31.280659 Z0.310000
 G1 X-1.051202 Y31.280659 Z0.000000
 G0 X-1.051202 Y31.280659 Z0.310000
 G0 X-0.655728 Y30.974716 Z0.310000
 G1 X-0.655728 Y30.974716 Z0.000000
 G0 X-0.655728 Y30.974716 Z0.310000
 G0 X-7.136517 Y22.773432 Z0.310000
 G1 X-7.136517 Y22.773432 Z0.000000
 G0 X-7.136517 Y22.773432 Z0.310000
 G0 X-7.375340 Y22.334156 Z0.310000
 G1 X-7.375340 Y22.334156 Z0.000000
 G0 X-7.375340 Y22.334156 Z0.310000
 G0 X-8.056830 Y18.783773 Z0.310000
 G1 X-8.056830 Y18.783773 Z0.000000
 G0 X-8.056830 Y18.783773 Z0.310000
 G0 X-8.266888 Y18.338345 Z0.310000
 G1 X-8.266888 Y18.338345 Z0.000000
 G0 X-8.266888 Y18.338345 Z0.310000
 G0 X-9.452713 Y15.635056 Z0.310000
 G1 X-9.452713 Y15.635056 Z0.000000
 G0 X-9.452713 Y15.635056 Z0.310000
 G0 X-9.637288 Y15.179444 Z0.310000
 G1 X-9.637288 Y15.179444 Z0.000000
 G0 X-9.637288 Y15.179444 Z0.310000
 G0 X-11.645988 Y9.133758 Z0.310000
 G1 X-11.645988 Y9.133758 Z0.000000
 G0 X-11.645988 Y9.133758 Z0.310000
 G0 X-11.766945 Y8.660014 Z0.310000
 G1 X-11.766945 Y8.660014 Z0.000000
 G0 X-11.766945 Y8.660014 Z0.310000
 G53 Z0
 M5
